X:1
T:Charlotte, CMD
T:Charlotte, CMD
T:Robert Frederick Smith, 1894
T:Public Domain Courtesy of the Cyber Hymnal™
C:Robert Frederick Smith, 1894
Z:Public Domain
Z:Courtesy of the Cyber Hymnal™
%%score ( 1 2 ) ( 3 4 ) ( 5 6 )
L:1/8
Q:1/4=115
M:none
K:D
V:1 treble 
V:2 treble 
V:3 treble 
V:4 treble 
V:5 bass 
V:6 bass 
V:1
 AG"^Allegro moderato" | (FE) (FG) A2 (Bc) | d3 c B2 (cB) | A2 B2 A2 E2 | F2 z4 (FD) | %5
 (DC) (DE) F2 (GA) | B3 A G2 (AB) | A2 F2 ^G2 c2 | F2 z4 (GF) | (E^D) (EF) G2 (AB) | %10
 c3 B ^A2 F2 x | d2 B2 G2 E2 | A4 z2 A2 | d3 c B2 A2 | G2 F2 E2 B2 | A2 D2 F2 E2 | D2 z6 | z8 | %18
 z8 x4 | z6 |] %20
V:2
 x2 | x8 | x8 | x8 | x6 C2 | x8 | x8 | x8 | x8 | x8 | x9 | x8 | x8 | x8 | x8 | x8 | x8 | x8 | x12 | %19
 x6 |] %20
V:3
 AG | (FE) (FG) [EA]2 (Bc) | d3 c [DGB]2 (cB) | [DA]2 [DB]2 [DEA]2 [CE]2 | [A,DF]2 z4 FD | %5
 D2 D2 [DF]2 (GA) | [DB]3 [CA] [DG]2 (AB) | [FA]2 F2 [FG]2 [^Ec]2 | [A,F]2 z4 (GF) | %9
 (E^D) (E[DF]) [B,G]2 (AB) | c3 z B [F^A]2 F2 | [DFd]2 [DFB]2 [DG]2 [CE]2 | [DA]4 [CA]4 | %13
 d3 c [DB]2 [DA]2 | G2 [DF]2 E2 [DEB]2 | [DFA]4 F2 E2 | z A2 d3 z c | B2 [FA] G2 [DF]2 x | %18
 E8 [CE]4 | [DF]6 |] %20
V:4
 D2 | D2 D2 x E2 x | [DF]4 [DG]2 x2 | x8 | x6 C2 | x6 D2 | x6 E2 | x2 C4 x2 | x6 [A,^D]2 | %9
 B,2 B,2 x4 | G2 E2 x5 | x8 | x8 | D4 x4 | (B,C) x6 | x4 C4 | x6 F2 | (GDE x B,C) x2 | D4 x8 | %19
 x6 |] %20
V:5
 [C,A,]2 | [D,A,]2 [D,A,]2 [C,A,]2 [C,A,]2 | B,,4 G,,2 E,,2 | F,,2 G,,2 A,,4 | D,2 z4 [A,,G,]2 | %5
 [D,F,]2 [D,F,A,]2 [B,,B,]2 [B,,B,]2 | [G,,G,]3 A,, B,,2 C,2 | D,4 C,4 | F,2 z4 B,,2 | %9
 ([E,G,] A,)(G,F,) E,4 | [E,C]2 [C,C]2 [F,C]2 [F,^A,]2 x | [B,,B,]2 [B,,B,]2 [E,B,]2 [G,A,]2 | %12
 [F,A,]4 [E,G,]4 | F,4 G,2 F,2 | [E,G,]2 [F,A,]2 [G,B,]2 ^G,2 | A,4 [A,,A,]2 A,2 | D3 C B,2 D,2 | %17
 [G,D]2 (C[F,D]) [E,G,]2 [D,A,]2 | A,4 [A,,A,]4 x4 | [D,A,]6 |] %20
V:6
 x2 | x8 | x8 | x8 | x8 | x8 | x8 | x8 | F,2 x6 | x A,G,F, E,4 | x9 | x8 | x8 | D,3 D, x4 | x8 | %15
 x8 | x8 | x8 | x12 | x6 |] %20

